replication/atom_indices/EAS_55_atomIndicesCap.svg

<?xml version="1.0" encoding="UTF-8"?>
<svg baseProfile="full" version="1.1" viewBox="0 0 800 200" xml:space="preserve" xmlns="http://www.w3.org/2000/svg">

 <!-- END OF HEADER -->
<rect width="800" height="200" fill="#fff"> </rect>
<path class="bond-0" d="m184.68 130.71-12.53 4.837" fill="none" stroke="#000" stroke-width="2px"/>
<path class="bond-0" d="m172.15 135.54-12.529 4.837" fill="none" stroke="#00f" stroke-width="2px"/>
<path class="bond-0" d="m178.02 124.64-8.771 3.386" fill="none" stroke="#000" stroke-width="2px"/>
<path class="bond-0" d="m169.24 128.02-8.77 3.386" fill="none" stroke="#00f" stroke-width="2px"/>
<path class="bond-1" d="m184.68 130.71 5.18-33.111" fill="none" stroke="#000" stroke-width="2px"/>
<path class="bond-2" d="m182.58 84.159-7.36-5.9367" fill="none" stroke="#000" stroke-width="2px"/>
<path class="bond-2" d="m175.22 78.222-7.36-5.9368" fill="none" stroke="#00f" stroke-width="2px"/>
<path class="bond-2" d="m175.31 88.654-5.152-4.1558" fill="none" stroke="#000" stroke-width="2px"/>
<path class="bond-2" d="m170.16 84.498-5.151-4.1557" fill="none" stroke="#00f" stroke-width="2px"/>
<path class="bond-3" d="m146.98 70.411-6.254 2.4143" fill="none" stroke="#00f" stroke-width="2px"/>
<path class="bond-3" d="m140.73 72.826-6.254 2.4142" fill="none" stroke="#000" stroke-width="2px"/>
<path class="bond-4" d="m113.59 73.366-14.719-11.874" fill="none" stroke="#000" stroke-width="2px"/>
<path class="bond-5" d="m120.87 86.804-4.129 26.392" fill="none" stroke="#000" stroke-width="2px"/>
<path class="bond-5" d="m128.22 92.009-2.89 18.475" fill="none" stroke="#000" stroke-width="2px"/>
<path class="bond-6" d="m124.02 126.63 7.359 5.937" fill="none" stroke="#000" stroke-width="2px"/>
<path class="bond-6" d="m131.38 132.57 7.36 5.937" fill="none" stroke="#00f" stroke-width="2px"/>
<path class="bond-7" d="m103.14 124.76-12.508 4.829" fill="none" stroke="#000" stroke-width="2px"/>
<path class="bond-8" d="m69.75 127.72-14.719-11.874" fill="none" stroke="#000" stroke-width="2px"/>
<path class="bond-8" d="m72.604 119.66-10.304-8.311" fill="none" stroke="#000" stroke-width="2px"/>
<path class="bond-9" d="m47.752 102.4 4.1291-26.392" fill="none" stroke="#000" stroke-width="2px"/>
<path class="bond-10" d="m34.15 113.97-2.9563 1.141" fill="none" stroke="#000" stroke-width="2px"/>
<path class="bond-10" d="m31.194 115.11-2.9563 1.142" fill="none" stroke="#00f" stroke-width="2px"/>
<path class="bond-11" d="m65.483 64.446 12.508-4.8285" fill="none" stroke="#000" stroke-width="2px"/>
<path class="bond-11" d="m70.263 71.244 8.7555-3.3799" fill="none" stroke="#000" stroke-width="2px"/>
<text x="178.358" y="97.5971" fill="#000000" font-family="sans-serif" font-size="13px"><tspan>C:1</tspan></text>
<text x="146.98" y="72.2853" fill="#0000FF" font-family="sans-serif" font-size="13px"><tspan>N:2</tspan></text>
<text x="109.37" y="86.8039" fill="#000000" font-family="sans-serif" font-size="13px"><tspan>C:3</tspan></text>
<text x="103.138" y="126.634" fill="#000000" font-family="sans-serif" font-size="13px"><tspan>C:4</tspan></text>
<text x="134.517" y="151.946" fill="#0000FF" font-family="sans-serif" font-size="13px"><tspan>N:5</tspan></text>
<text x="65.5283" y="141.153" fill="#000000" font-family="sans-serif" font-size="13px"><tspan>C:6</tspan></text>
<text x="34.1498" y="115.841" fill="#000000" font-family="sans-serif" font-size="13px"><tspan>C:7</tspan></text>
<text x="40.3813" y="76.0107" fill="#000000" font-family="sans-serif" font-size="13px"><tspan>C:8</tspan></text>
<text x="77.9912" y="61.4921" fill="#000000" font-family="sans-serif" font-size="13px"><tspan>C:9</tspan></text>
<text x="-16.0112" y="131.032" fill="#0000FF" font-family="sans-serif" font-size="13px"><tspan>H</tspan><tspan baseline-shift="sub" font-size="9.75px">2</tspan><tspan>N:10</tspan></text>
<text x="70.3745" y="194" fill="#000000" font-family="sans-serif" font-size="12px"><tspan>comp548</tspan></text>
</svg>

<?xml version='1.0' encoding='iso-8859-1'?>
<svg version='1.1' baseProfile='full'
              xmlns='http://www.w3.org/2000/svg'
                      xmlns:rdkit='http://www.rdkit.org/xml'
                      xmlns:xlink='http://www.w3.org/1999/xlink'
                  xml:space='preserve'
width='800px' height='200px' viewBox='0 0 800 200'>
<!-- END OF HEADER -->
<rect style='opacity:1.0;fill:#FFFFFF;stroke:none' width='800' height='200' x='0' y='0'> </rect>
<path class='bond-0' d='M 184.678,130.708 L 172.148,135.545' style='fill:none;fill-rule:evenodd;stroke:#000000;stroke-width:2px;stroke-linecap:butt;stroke-linejoin:miter;stroke-opacity:1' />
<path class='bond-0' d='M 172.148,135.545 L 159.619,140.382' style='fill:none;fill-rule:evenodd;stroke:#0000FF;stroke-width:2px;stroke-linecap:butt;stroke-linejoin:miter;stroke-opacity:1' />
<path class='bond-0' d='M 178.015,124.637 L 169.244,128.023' style='fill:none;fill-rule:evenodd;stroke:#000000;stroke-width:2px;stroke-linecap:butt;stroke-linejoin:miter;stroke-opacity:1' />
<path class='bond-0' d='M 169.244,128.023 L 160.474,131.409' style='fill:none;fill-rule:evenodd;stroke:#0000FF;stroke-width:2px;stroke-linecap:butt;stroke-linejoin:miter;stroke-opacity:1' />
<path class='bond-1' d='M 184.678,130.708 L 189.858,97.5971' style='fill:none;fill-rule:evenodd;stroke:#000000;stroke-width:2px;stroke-linecap:butt;stroke-linejoin:miter;stroke-opacity:1' />
<path class='bond-2' d='M 182.58,84.1588 L 175.22,78.2221' style='fill:none;fill-rule:evenodd;stroke:#000000;stroke-width:2px;stroke-linecap:butt;stroke-linejoin:miter;stroke-opacity:1' />
<path class='bond-2' d='M 175.22,78.2221 L 167.86,72.2853' style='fill:none;fill-rule:evenodd;stroke:#0000FF;stroke-width:2px;stroke-linecap:butt;stroke-linejoin:miter;stroke-opacity:1' />
<path class='bond-2' d='M 175.309,88.6535 L 170.157,84.4977' style='fill:none;fill-rule:evenodd;stroke:#000000;stroke-width:2px;stroke-linecap:butt;stroke-linejoin:miter;stroke-opacity:1' />
<path class='bond-2' d='M 170.157,84.4977 L 165.006,80.342' style='fill:none;fill-rule:evenodd;stroke:#0000FF;stroke-width:2px;stroke-linecap:butt;stroke-linejoin:miter;stroke-opacity:1' />
<path class='bond-3' d='M 146.98,70.4112 L 140.726,72.8255' style='fill:none;fill-rule:evenodd;stroke:#0000FF;stroke-width:2px;stroke-linecap:butt;stroke-linejoin:miter;stroke-opacity:1' />
<path class='bond-3' d='M 140.726,72.8255 L 134.472,75.2397' style='fill:none;fill-rule:evenodd;stroke:#000000;stroke-width:2px;stroke-linecap:butt;stroke-linejoin:miter;stroke-opacity:1' />
<path class='bond-4' d='M 113.591,73.3656 L 98.8718,61.4921' style='fill:none;fill-rule:evenodd;stroke:#000000;stroke-width:2px;stroke-linecap:butt;stroke-linejoin:miter;stroke-opacity:1' />
<path class='bond-5' d='M 120.869,86.8039 L 116.74,113.196' style='fill:none;fill-rule:evenodd;stroke:#000000;stroke-width:2px;stroke-linecap:butt;stroke-linejoin:miter;stroke-opacity:1' />
<path class='bond-5' d='M 128.216,92.009 L 125.326,110.484' style='fill:none;fill-rule:evenodd;stroke:#000000;stroke-width:2px;stroke-linecap:butt;stroke-linejoin:miter;stroke-opacity:1' />
<path class='bond-6' d='M 124.019,126.634 L 131.378,132.571' style='fill:none;fill-rule:evenodd;stroke:#000000;stroke-width:2px;stroke-linecap:butt;stroke-linejoin:miter;stroke-opacity:1' />
<path class='bond-6' d='M 131.378,132.571 L 138.738,138.508' style='fill:none;fill-rule:evenodd;stroke:#0000FF;stroke-width:2px;stroke-linecap:butt;stroke-linejoin:miter;stroke-opacity:1' />
<path class='bond-7' d='M 103.138,124.76 L 90.6303,129.589' style='fill:none;fill-rule:evenodd;stroke:#000000;stroke-width:2px;stroke-linecap:butt;stroke-linejoin:miter;stroke-opacity:1' />
<path class='bond-8' d='M 69.7497,127.715 L 55.0304,115.841' style='fill:none;fill-rule:evenodd;stroke:#000000;stroke-width:2px;stroke-linecap:butt;stroke-linejoin:miter;stroke-opacity:1' />
<path class='bond-8' d='M 72.6042,119.658 L 62.3007,111.347' style='fill:none;fill-rule:evenodd;stroke:#000000;stroke-width:2px;stroke-linecap:butt;stroke-linejoin:miter;stroke-opacity:1' />
<path class='bond-9' d='M 47.752,102.403 L 51.8811,76.0107' style='fill:none;fill-rule:evenodd;stroke:#000000;stroke-width:2px;stroke-linecap:butt;stroke-linejoin:miter;stroke-opacity:1' />
<path class='bond-10' d='M 34.1498,113.967 L 31.1935,115.108' style='fill:none;fill-rule:evenodd;stroke:#000000;stroke-width:2px;stroke-linecap:butt;stroke-linejoin:miter;stroke-opacity:1' />
<path class='bond-10' d='M 31.1935,115.108 L 28.2372,116.25' style='fill:none;fill-rule:evenodd;stroke:#0000FF;stroke-width:2px;stroke-linecap:butt;stroke-linejoin:miter;stroke-opacity:1' />
<path class='bond-11' d='M 65.4833,64.4465 L 77.9912,59.618' style='fill:none;fill-rule:evenodd;stroke:#000000;stroke-width:2px;stroke-linecap:butt;stroke-linejoin:miter;stroke-opacity:1' />
<path class='bond-11' d='M 70.2632,71.2442 L 79.0187,67.8643' style='fill:none;fill-rule:evenodd;stroke:#000000;stroke-width:2px;stroke-linecap:butt;stroke-linejoin:miter;stroke-opacity:1' />
<text x='178.358' y='97.5971' style='font-size:13px;font-style:normal;font-weight:normal;fill-opacity:1;stroke:none;font-family:sans-serif;text-anchor:start;fill:#000000' ><tspan>C:1</tspan></text>
<text x='146.98' y='72.2853' style='font-size:13px;font-style:normal;font-weight:normal;fill-opacity:1;stroke:none;font-family:sans-serif;text-anchor:start;fill:#0000FF' ><tspan>N:2</tspan></text>
<text x='109.37' y='86.8039' style='font-size:13px;font-style:normal;font-weight:normal;fill-opacity:1;stroke:none;font-family:sans-serif;text-anchor:start;fill:#000000' ><tspan>C:3</tspan></text>
<text x='103.138' y='126.634' style='font-size:13px;font-style:normal;font-weight:normal;fill-opacity:1;stroke:none;font-family:sans-serif;text-anchor:start;fill:#000000' ><tspan>C:4</tspan></text>
<text x='134.517' y='151.946' style='font-size:13px;font-style:normal;font-weight:normal;fill-opacity:1;stroke:none;font-family:sans-serif;text-anchor:start;fill:#0000FF' ><tspan>N:5</tspan></text>
<text x='65.5283' y='141.153' style='font-size:13px;font-style:normal;font-weight:normal;fill-opacity:1;stroke:none;font-family:sans-serif;text-anchor:start;fill:#000000' ><tspan>C:6</tspan></text>
<text x='34.1498' y='115.841' style='font-size:13px;font-style:normal;font-weight:normal;fill-opacity:1;stroke:none;font-family:sans-serif;text-anchor:start;fill:#000000' ><tspan>C:7</tspan></text>
<text x='40.3813' y='76.0107' style='font-size:13px;font-style:normal;font-weight:normal;fill-opacity:1;stroke:none;font-family:sans-serif;text-anchor:start;fill:#000000' ><tspan>C:8</tspan></text>
<text x='77.9912' y='61.4921' style='font-size:13px;font-style:normal;font-weight:normal;fill-opacity:1;stroke:none;font-family:sans-serif;text-anchor:start;fill:#000000' ><tspan>C:9</tspan></text>
<text x='-16.0112' y='131.032' style='font-size:13px;font-style:normal;font-weight:normal;fill-opacity:1;stroke:none;font-family:sans-serif;text-anchor:start;fill:#0000FF' ><tspan>H</tspan><tspan style='baseline-shift:sub;font-size:9.75px;'>2</tspan><tspan>N:10</tspan></text>
<text x='70.3745' y='194' style='font-size:12px;font-style:normal;font-weight:normal;fill-opacity:1;stroke:none;font-family:sans-serif;text-anchor:start;fill:#000000' ><tspan>comp548</tspan></text>
</svg>
